brandFactory_export/1.Light/Añadir mas _1light.svg

<?xml version="1.0" encoding="UTF-8"?>
<svg width="24px" height="24px" viewBox="0 0 24 24" version="1.1" xmlns="http://www.w3.org/2000/svg" xmlns:xlink="http://www.w3.org/1999/xlink">
    <title>1.Light/Añadir mas _1light</title>
    <g id="Symbols" stroke="none" stroke-width="1" fill="none" fill-rule="evenodd">
        <g id="1.Light/Añadir-mas-_1light" fill="#5CB615" fill-rule="nonzero">
            <path d="M17.697479,11.2840336 C17.9697479,11.2840336 18.1882353,11.5058824 18.1882353,11.7747899 C18.1882353,12.0436975 17.9663866,12.2655462 17.697479,12.2655462 L12.2991597,12.2655462 L12.2991597,17.6773109 C12.2991597,17.9495798 12.0773109,18.1680672 11.8084034,18.1680672 C11.5394958,18.1680672 11.3176471,17.9462185 11.3176471,17.6773109 L11.3176471,12.2689076 L5.92605042,12.2689076 C5.65378151,12.2689076 5.43529412,12.0470588 5.43529412,11.7781513 C5.43529412,11.5092437 5.65714286,11.287395 5.92605042,11.287395 L11.3142857,11.287395 L11.3142857,5.94285714 C11.3142857,5.67058824 11.5361345,5.45210084 11.805042,5.45210084 C12.0739496,5.45210084 12.2957983,5.67394958 12.2957983,5.94285714 L12.2957983,11.2840336 L17.697479,11.2840336 Z M12.3327731,22.6319328 C14.7495798,22.5882353 22.6386555,21.6773109 22.6386555,11.8420168 C22.6386555,7.58319328 21.1798319,4.50756303 18.3092437,2.7092437 C15.9630252,1.23697479 13.3142857,1.01848739 12.2823529,0.994957983 C12.0201681,0.988235294 11.7176471,0.98487395 11.4252101,0.98487395 L11.2,0.98487395 C10.1747899,0.994957983 7.54285714,1.1697479 5.23361345,2.62521008 C2.41008403,4.39663866 0.98487395,7.47563025 0.98487395,11.7747899 C0.98487395,16.0773109 2.42352941,19.1697479 5.27058824,20.9613445 C7.60336134,22.4302521 10.2521008,22.6218487 11.2840336,22.6386555 C11.4016807,22.6420168 11.5193277,22.6420168 11.6369748,22.6420168 C11.8789916,22.6386555 12.1210084,22.6386555 12.3327731,22.6319328 Z M12.302521,0.0100840336 C14.6151261,0.0638655462 23.6235294,0.978151261 23.6235294,11.8420168 C23.6235294,22.7294118 14.6084034,23.5731092 12.3529412,23.6168067 C12.1378151,23.6201681 11.8857143,23.6235294 11.6369748,23.6235294 C11.5159664,23.6235294 11.3915966,23.6235294 11.2705882,23.6201681 C8.89747899,23.5865546 0,22.7294118 0,11.7747899 C0,0.833613445 8.81680672,0.0201680672 11.1865546,0 L11.4218487,0 C11.7243697,0 12.0336134,0.00336134454 12.302521,0.0100840336 Z" id="Añadir-mas-_1light"></path>
        </g>
    </g>
</svg>

<svg width="24" height="24" viewBox="0 0 24 24" xmlns="http://www.w3.org/2000/svg"><path d="M17.697 11.284a.491.491 0 010 .982H12.3v5.411a.491.491 0 01-.981 0V12.27H5.926a.491.491 0 010-.982h5.388V5.943a.491.491 0 01.982 0v5.341h5.401zm-5.364 11.348c2.417-.044 10.306-.955 10.306-10.79 0-4.259-1.46-7.334-4.33-9.133-2.346-1.472-4.995-1.69-6.027-1.714-.262-.007-.564-.01-.857-.01H11.2c-1.025.01-3.657.185-5.966 1.64-2.824 1.772-4.25 4.85-4.25 9.15 0 4.302 1.44 7.395 4.287 9.186 2.332 1.47 4.981 1.66 6.013 1.678.118.003.235.003.353.003.242-.003.484-.003.696-.01zM12.303.01c2.312.054 11.32.968 11.32 11.832 0 10.887-9.015 11.731-11.27 11.775-.215.003-.467.007-.716.007-.121 0-.245 0-.366-.004C8.897 23.587 0 22.73 0 11.775 0 .834 8.817.02 11.187 0h.235c.302 0 .612.003.88.01z" fill="#5CB615" fill-rule="nonzero"/></svg>
